icon-themes/sifr_svg/cmd/sc_pagemargin.svg

<svg viewBox="0 0 16 16" xmlns="http://www.w3.org/2000/svg"><path d="m1 0v16h14v-16zm2 2h2v3h-2zm3 0h4v3h-4zm5 0h2v3h-2zm-8 4h2v4h-2zm3 0h4v4h-4zm5 0h2v4h-2zm-8 5h2v3h-2zm3 0h4v3h-4zm5 0h2v3h-2z" fill="#555753"/></svg>

<svg xmlns="http://www.w3.org/2000/svg" viewBox="0 0 16 16">
  <path
     style="fill:#555753"
     d="M 1 0 L 1 16 L 15 16 L 15 0 L 1 0 z M 3 2 L 5 2 L 5 5 L 3 5 L 3 2 z M 6 2 L 10 2 L 10 5 L 6 5 L 6 2 z M 11 2 L 13 2 L 13 5 L 11 5 L 11 2 z M 3 6 L 5 6 L 5 10 L 3 10 L 3 6 z M 6 6 L 10 6 L 10 10 L 6 10 L 6 6 z M 11 6 L 13 6 L 13 10 L 11 10 L 11 6 z M 3 11 L 5 11 L 5 14 L 3 14 L 3 11 z M 6 11 L 10 11 L 10 14 L 6 14 L 6 11 z M 11 11 L 13 11 L 13 14 L 11 14 L 11 11 z "
     />
</svg>
